X: 1
T: O'Connell's Welcome To Dublin
M: 6/8
L: 1/8
R: jig
K: Gmaj
ef |: ~g3 edc | ~B3 EFG | ~F3 DFA | dAF AFD|
~g3 edc | ~B3 EFG | (3B^cd B AGF | GEE ~E3 :|
|: ~e3 Beg | bge gfe | ~d3 Adf | ~a3 afd |
~e3 Beg| bge ~g3 | (3B^cd B AGF | GEE ~E3 :|
